X:1
T:Title
%%score { ( 1 3 ) | 2 }
L:1/8
M:4/4
K:Ab
V:1 treble nm="Grand Piano"
V:3 treble 
V:2 bass 
V:1
 z4 z2[Q:1/4=94] [Ec]>[CA] | [CE]2 [CE]>[CEA] [Ec]2 [Ec]>[Ec] | [Fd]<[Fd] [FA]>[FB] [Ec]4 | %3
 e<e c>B A<A [=DG]>[DA] | [EB]6 [Ec]>[CA] | [CE]2 [CE]>[CEA] [Ec]2 [Ec]>[Ec] | %6
 [Fd]<[Fd] [FA]>[=EB] [_Ec]4 | [DF]<[DF] [Fd]>[Fd] c<A G>B | [CEA]6 z2 | e<e e>d c<c B>A | c6 z2 | %11
 e>e e>d c<c [=DB]>[DA] | B6 z2 | [CE]2 [CE]>[CEA] [Ec]2 [Ec]>[Ec] | [Fd]<[Fd] [FA]>[=EB] [_Ec]4 | %15
 [DF]<[DF] [Fd]>[Fd] c<A G>B |[M:8/4] [CEA]8 z8 |] %17
V:2
 z4 z2 [A,,A,]>[A,,A,] | [A,,A,]2 [A,,A,]>A,, [A,,A,]2 [A,,A,]>[A,,A,] | %2
 [D,A,]<[D,A,] [D,A,]>[D,A,] [A,,A,]4 | [A,CE]<[A,CE] [A,E]>[A,DE] [F,CF]<[F,CF] [B,,B,]>[B,,F,] | %4
 [E,G,]6 [A,,A,]>[A,,A,] | [A,,A,]2 [A,,A,]>A,, [A,,A,]2 [A,,A,]>[A,,A,] | %6
 [D,A,]<[D,A,] [D,A,]>[D,A,] [A,,A,]4 | [D,A,]<[D,A,] [D,A,]>[D,A,] [E,A,E]<[E,CE] [E,B,E]>[E,DE] | %8
 A,,6 z2 | [A,CE]<[A,CE] [A,CE]>[A,B,E] [A,E]<[A,E] [A,DE]>[A,CE] | %10
 [A,E]2 [E,A,]>[C,A,] [A,,A,]2 z2 | [A,CE]>[A,CE] [A,CE]>[A,B,E] [A,E]<[A,E] [B,,F,]>[B,,F,] | %12
 [E,G,E]2 [E,G,]>[E,G,] [E,G,]2 [A,,A,]>[A,,A,] | [A,,A,]2 [A,,A,]>A,, [A,,A,]2 [A,,A,]>[A,,A,] | %14
 [D,A,]<[D,A,] [D,A,]>[D,A,] [A,,A,]4 | [D,A,]<[D,A,] [D,A,]>[D,A,] [E,A,E]<[E,CE] [E,B,E]>[E,DE] | %16
[M:8/4] A,,8 z8 |] %17
V:3
 x8 | x8 | x8 | x8 | x8 | x8 | x8 | x8 | x8 | x8 | z2 E>E E2 z2 | x8 | z2 E>E E2 [Ec]>[CA] | x8 | %14
 x8 | x8 |[M:8/4] x16 |] %17

